X:1
T:Alas! and Did My Savior Bleed
T:Text: Isaac Watts (1674-1748) Tune: Hugh Wilson (1764-1824); adapt. Robert Smith (1780-1824)
T:CM MARTYRDOM www.hymnary.org/text/alas_and_did_my_savior_bleed
T:Alas! and Did My Savior Bleed
T:This hymn is in the public domain.  You may freely use this score for personal and congregational worship.  If you reproduce the score, please credit Hymnary.org as the source. 
T:This hymn is in the public domain.  You may freely use this score for personal and congregational worship.  If you reproduce the score, please credit Hymnary.org as the source. 
Z:This hymn is in the public domain.  You may freely use this score for personal and congregational worship.  If you reproduce the score, please credit Hymnary.org as the source.
%%score ( 1 2 ) ( 3 4 )
L:1/8
M:6/4
K:G
V:1 treble nm="Piano" snm="Pno."
V:2 treble 
V:3 bass nm="Piano" snm="Pno."
V:4 bass 
V:1
 [B,D]2 | [B,G]4 [CE]2 [B,D]4 [DG][EA] | [DB]4 [CA]2 [B,G]4 [DB]2 | [Dd]4 BA [DG]4 [DB]2 | %4
w: 3~Well|might the sun in _|dark- ness hide and|shut its _ glo- ries|
w: 1~A-|las! and did my _|Sa- vior bleed, and|did my _ sov- ereign|
w: 2~Was|it for crimes that _|I have done, he|groaned up- * on the|
 [DA]6- [DA]4 | [Dd]2 | [DB]4 [CA]2 [B,G]4 [=FB]2 | [Ec]4 [DB]2 [DA]4 [DB]2 | %8
w: in, _|when|Christ, the migh- ty|Ma- ker, died for|
w: die? _|Would|he de- vote that|sa- cred head for|
w: tree? _|A-|ma- zing pi- ty,|grace un- known, and|
 (D2 E2) [DG][EA] [DB]4 [CA]2 | [B,G]6- [B,G]4 |] %10
w: his _ own _ cre- ature's|sin. *|
w: sin- * ners _ such as|I? *|
w: love _ be- * yond de-|gree! *|
V:2
 x2 | x12 | x12 | x4 D2 x6 | x10 | x2 | x12 | x12 | (D2 C2) x8 | x10 |] %10
V:3
 [G,,G,]2 | [G,,D,]4 [G,,G,]2 [G,,G,]4 G,2 | [D,G,]4 [D,F,]2 [G,,G,]4 G,2 | %3
 [G,B,]4 [G,,G,][A,,F,] [B,,G,]4 [G,,G,]2 | [D,F,]6- [D,F,]4 | [D,F,]2 | %6
 G,4 [D,F,]2 [E,G,]4 [D,G,]2 | [C,G,]4 [G,,G,]2 [D,F,]4 [G,,G,]2 | G,4 G,2 [D,G,]4 [D,F,]2 | %9
 [G,,G,]6- [G,,G,]4 |] %10
V:4
 x2 | x10 B,,C, | x10 G,2 | x12 | x10 | x2 | G,4 x8 | x12 | (B,,2 C,2) B,,C, x6 | x10 |] %10

